X: 28106
T: Mr. Pibblee
R: waltz
M: 3/4
K: Gminor
G2 G>G2 F/D|c<B B>B2 A/F|G2 G>G2 F/D|c<B c d3:|
c2 c>c2 B/A|d2 d>d2 c/A|F<G F G3|c2 c>c2 B/A|d2 d>d2 c/A|F<G F G3|
c2 c>c2 B/A|d2 d>d2 c/A|F<G FD B,<A,|(G,4 G,2)||

